packages/vapor/resources/icons/svg/condition.svg

<svg viewBox="0 0 18 18" xmlns="http://www.w3.org/2000/svg"> <path d="m17.1 0h-16.2c-.5 0-.9.4-.9.9v16.2c0 .5.4.9.9.9h16.2c.5 0 .9-.4.9-.9v-16.2c0-.5-.4-.9-.9-.9zm-1.1 16h-14v-14h14z"/> <path d="m4 13h2v-8h-2z"/> <path d="m8 5h6v2h-4v1h3v2h-3v3h-2z"/> </svg>

<svg viewBox="0 0 18 18" xmlns="http://www.w3.org/2000/svg"><g fill="currentColor"><path d="M17.1 0H.9C.4 0 0 .4 0 .9v16.2c0 .5.4.9.9.9h16.2c.5 0 .9-.4.9-.9V.9c0-.5-.4-.9-.9-.9zM16 16H2V2h14z"/><path d="M4 13h2V5H4zM8 5h6v2h-4v1h3v2h-3v3H8z"/></g></svg>
